material/.icons/material/sort-alphabetical-ascending-variant.svg

<svg xmlns="http://www.w3.org/2000/svg" viewBox="0 0 24 24"><path d="M9.25 5l3.25-3.25L15.75 5h-6.5m-.36 9.3H6L5.28 17H2.91L6 7h3l3.13 10H9.67l-.78-2.7m-2.56-1.62h2.23l-.63-2.12-.26-.97-.25-.96h-.03l-.22.97-.24.98-.6 2.1M13.05 17v-1.26l4.75-6.77v-.06h-4.3V7h7.23v1.34L16.09 15v.08h4.71V17h-7.75z"/></svg>

<?xml version="1.0" encoding="UTF-8"?><!DOCTYPE svg PUBLIC "-//W3C//DTD SVG 1.1//EN" "http://www.w3.org/Graphics/SVG/1.1/DTD/svg11.dtd"><svg xmlns="http://www.w3.org/2000/svg" xmlns:xlink="http://www.w3.org/1999/xlink" version="1.1" id="mdi-sort-alphabetical-ascending-variant" width="24" height="24" viewBox="0 0 24 24"><path d="M9.25 5L12.5 1.75L15.75 5H9.25M8.89 14.3H6L5.28 17H2.91L6 7H9L12.13 17H9.67L8.89 14.3M6.33 12.68H8.56L7.93 10.56L7.67 9.59L7.42 8.63H7.39L7.17 9.6L6.93 10.58L6.33 12.68M13.05 17V15.74L17.8 8.97V8.91H13.5V7H20.73V8.34L16.09 15V15.08H20.8V17H13.05Z" /></svg>
